X:1
T:BWV 0778
T:Invention 7    (A = 415 Hz)
T:Johann Sebastian Bach
%%score { 1 | 2 }
L:1/8
Q:1/4=72
M:4/4
K:G
V:1 treble nm="Harp"
V:2 bass 
V:1
 z B/A/ G/F/G/E/ B/4A/4B/B e/4^d/4ef/ | %1
 e/4^d/4e/4d/4f/e/ d/^c/d/B/ ba/g/ g/4f/4g/4f/4g/4f/4e/4f/4 | gb/a/ g/f/g/e/ c'/4b/4c'b/ a/g/f/e/ | %3
 f/4e/4f/a/g/ f/e/f/d/ b>a g/f/e/d/ | e/4d/4f/e/d/ c/B/A/G/ c/B/A/B/ c/d/e/f/ | %5
 g/f/e/d/ g/4f/4gg/ g/f/e/f/ g/4f/4g/4f/4g/4f/4g/ | %6
 gd/c/ B/A/B/G/ e/4d/4e/4d/4e/4d/4e/4d/4 e/4d/4e/4d/4e/4d/4e/4d/4 | %7
 e/4d/4e/4d/4e/4d/4e/4d/4 e/4d/4e/4d/4e/4d/4e/4d/4 e/4d/4e/4d/4e/4d/4e/4d/4 e/4d/4e/4d/4e/4d/4e/4d/4 | %8
 e/4d/4e/4d/4e/4d/4e/ ^c/4d/4c/4d/4c/d/ dA/G/ F/E/F/D/ | c/4B/4cB/ c>d c/4B/4c/4B/4B e/4d/4ee/ | %10
 e/g/f/e/ d/^c/d/B/ ^Af/e/ d/c/d/B/ | eb/a/ g/f/g/e/ ^a^cf^A | %12
 B/4A/4B^c/ d/4c/4d/4c/4d/4c/4B/ Bd Ed | cA Dc Bd gB | Af Ge e/4^d/4e/4d/4f/e/ d/^c/B/A/ | %15
 G/F/G/B/ e/B/A/G/ F/E/F/A/ d/A/G/F/ | E/^D/E/G/ c/G/F/E/ D/^C/D/F/ BB | %17
 B2- B/^d/e/g/ A2- A/^c/d/f/ | G2- G/B/^d/e/ F/A/B/c/ ^D/F/G/A/ | B,A- A/F/B/F/ GE c/4B/4cc/ | %20
 d/4c/4d/4c/4B g/4f/4gg/ g/a/g/f/ g/4f/4g/4f/4g/4f/4e/ | %21
 e/d/c/B/ A/G/A/F/[Q:1/4=69] ^dF B/4A/4Bc/[Q:1/4=71][Q:1/4=70][Q:1/4=68][Q:1/4=67] | %22
[Q:1/4=66] B/4[Q:1/4=65]A/4[Q:1/4=64]B/4[Q:1/4=63]A/4[Q:1/4=62]B/4[Q:1/4=61]A/4[Q:1/4=60]G/[Q:1/4=58] G/4[Q:1/4=57]F/4[Q:1/4=56]G/4[Q:1/4=55]F/4[Q:1/4=54]G/4[Q:1/4=53]F/4[Q:1/4=52]E/[Q:1/4=50] !fermata!E4[Q:1/4=59][Q:1/4=51] |] %23
V:2
 E,/4D,/4E,/E,, z2 z B,/A,/ G,/F,/G,/E,/ | B,B,, z z2 F/E/ ^D/^C/D/B,/ | EE, z z2 E/D/ C/B,/C/A,/ | %3
 D/4C/4D/D, z2 z D/C/ B,/A,/B,/G,/ | C/4B,/4CB,/ A,/G,/F,/E,/ A,/4G,/4A,G,/ F,/E,/D,/C,/ | %5
 B,,>C, B,,/A,,/G,,/F,,/ E,,C, D,D,, | G,,2 z z2 G,,/A,,/ B,,/A,,/B,,/G,,/ | %7
 D,/^C,/D,/E,/ F,/E,/F,/D,/ G,/F,/G,/A,/ B,/A,/B,/F,/ | G,/F,/G,/E,/ A,A,, D,D,, z2 | %9
 z A,/G,/ F,/E,/F,/D,/ G,/A,/G,/F,/ E,/D,/E,/^C,/ | F,^A,,B,,G,, F,,2 z B,/A,/ | %11
 G,/F,/G,/E,/ D-D/E/ ^CG/F/ E/D/E/C/ | D/^C/D/B,/ FF, B,/=C/B,/A,/ ^G,/F,/G,/E,/ | %13
 A,/B,/A,/G,/ F,/E,/F,/D,/ G,/A,/G,/F,/ E,/D,/E,/^C,/ | %14
 ^D,/^C,/D,/B,,/ E,/D,/E,/E,,/ C,/4B,,/4C,/4B,,/4C,/4B,,/4C,/4B,,/4 C,/4B,,/4C,/4B,,/4C,/4B,,/4C,/4B,,/4 | %15
 ^C,/4B,,/4C,/4B,,/4C,/4B,,/4C,/4B,,/4 C,/4B,,/4C,/4B,,/4C,/4B,,/4C,/4B,,/4 C,/4B,,/4C,/4B,,/4C,/4B,,/4C,/4B,,/4 C,/4B,,/4C,/4B,,/4C,/4B,,/4C,/4B,,/4 | %16
 ^C,/4B,,/4C,/4B,,/4C,/4B,,/4C,/4B,,/4 C,/4B,,/4C,/4B,,/4C,/4B,,/4C,/4B,,/4 C,/4B,,/4C,/4B,,/4C,/4B,,/4C,/4B,,/4 C,/4B,,/4C/B,/A,/ | %17
 G,/F,/G,/B,/ E/B,/A,/G,/ F,/E,/F,/A,/ ^D/A,/G,/F,/ | E,/^D,/E,/G,/ C/G,/F,/E,/ D,B,, z2 | %19
 z/ G,/F,/E,/ ^D,/^C,/D,/B,,/ E,/=D,/=C,/B,,/ A,,/G,,/A,,/F,,/ | %20
 G,,/A,,/G,,/F,,/ E,,/D,,/E,,/C,,/ A,,/G,,/A,,/F,,/ B,,/A,,/B,,/G,,/ | %21
 C,4- C,/C/B,/A,/ G,/F,/G,/E,/ | ^D,E,B,B,, !fermata!E,,4 |] %23

